X:1
T:Battle Hymn of the Republic
T:19th Century Tune
T:Battle Hymn of the Republic
T:Public Domain
T:Public Domain
T:Public Domain
C:19th Century Tune
Z:Public Domain
%%score 1 ( 2 3 )
L:1/8
M:4/4
K:Bb
V:1 treble 
V:2 bass 
V:3 bass 
V:1
 [DF]>[DF] | [DF]>[DF] [DF]>[CE] [B,D]>[DF] [FB]>[Fc] | [Fd]>[Fd] [Fd]>[Ec] [DB]2 [FB]>[FA] | %3
w: 1.~Mi- ne|eyes have seen the glo- ry of the|com- ing of the Lord; He is|
w: 2.~I have|seen Him in the watch fires of a|hun- dred circ- ling camps They have|
w: 3.~I have|read a fier- y Gos- pel writ in|bur- nished rows of steel; “As ye|
w: 4.~He has|sound- ed forth the trump- et that shall|ne- ver call re- treat; He is|
w: 5.~In the|beau- ty of the lil- ies Christ was|born a- cross the sea, With a|
w: 6.~He is|com- ing like the glo- ry of the|morn- ing on the wave, He is|
 [EG]>[EG] [EG]>[FA] [GB]>[FA] [GB]>[EG] | [DF]>[EG] [DF]>[B,D] [DF]2 [DF]>[DF] | %5
w: tramp- ling out the vin- tage where the|grapes of wrath are stored; He hath|
w: build- ed Him an al- tar in the|ev- ening dews and damps; I can|
w: deal with My con- temn- ers, so with|you My grace shall deal”; Let the|
w: sift- ing out the hearts of men be-|fore His judg- ment seat; Oh, be|
w: glo- ry in His bo- som that trans-|fig- ures you and me: As He|
w: wis- dom to the might- y, He is|hon- or to the brave; So the|
 [DF]>[DF] [DF]>[CE] [B,D]>[DF] [FB]>[Fc] | [Fd]>[Fd] [Fd]>[Ec] [DB]2 [FB]2 | %7
w: loosed the fate- ful light- ning of His|ter- ri- ble swift sword; His|
w: read His right- eous sen- tence by the|dim and flar- ing lamps; His|
w: He- ro, born of wo- man, crush the|ser- pent with His heel, Since|
w: swift, my soul, to an- swer Him! be|ju- bi- lant, my feet; Our|
w: died to make men ho- ly, let us|live to make men free; While|
w: world shall be His foot- stool, and the|soul of wrong His slave, Our|
 [Gc]2 [Gc]2 [FB]2 [EA]2 | [DB]8 | [DF]3 [CE] [B,D]>[DF] [FB]>[Fc] | [Fd]4 [FB]4 | %11
w: truth is march- ing|on.|Glo- ry! Glo- ry! Hal- le-|lu- jah!|
w: day is march- ing|on.|Glo- ry! Glo- ry! Hal- le-|lu- jah!|
w: God is march- ing|on.|Glo- ry! Glo- ry! Hal- le-|lu- jah!|
w: God is march- ing|on.|Glo- ry! Glo- ry! Hal- le-|lu- jah!|
w: God is march- ing|on.|Glo- ry! Glo- ry! Hal- le-|lu- jah!|
w: God is march- ing|on.|Glo- ry! Glo- ry! Hal- le-|lu- jah!|
 [EG]3 [FA] [GB]>[FA] [GB]>[EG] | [DF]4 [B,D]4 | [DF]3 [CE] [B,D]>[DF] [FB]>[Fc] | %14
w: Glo- ry! Glo- ry! Hal- le-|lu- jah!|Glo- ry! Glo- ry! Hal- le-|
w: Glo- ry! Glo- ry! Hal- le-|lu- jah!|Glo- ry! Glo- ry! Hal- le-|
w: Glo- ry! Glo- ry! Hal- le-|lu- jah!|Glo- ry! Glo- ry! Hal- le-|
w: Glo- ry! Glo- ry! Hal- le-|lu- jah!|Glo- ry! Glo- ry! Hal- le-|
w: Glo- ry! Glo- ry! Hal- le-|lu- jah!|Glo- ry! Glo- ry! Hal- le-|
w: Glo- ry! Glo- ry! Hal- le-|lu- jah!|Glo- ry! Glo- ry! Hal- le-|
 [Fd]4 [FB]2 [FB]2 | [Gc]2 [Gc]2 [FB]2 [EA]2 | [DB]8 |] %17
w: lu- jah! His|truth is march- ing|on.|
w: lu- jah! His|day is march- ing|on.|
w: lu- jah! Since|God is march- ing|on.|
w: lu- jah! Our|God is march- ing|on.|
w: lu- jah! While|God is march- ing|on.|
w: lu- jah! Our|God is march- ing|on.|
V:2
 [B,,B,]>[B,,B,] | [B,,B,]>[B,,B,] [B,,B,]>[B,,F,] [B,,F,]>[B,,B,] [D,B,]>[F,A,] | %2
 B,>B, [F,B,]>[F,A,] [B,,B,]2 [D,B,]>[D,B,] | %3
 [E,B,]>[E,B,] [E,B,]>[E,B,] [E,E]>[E,E] [E,E]>[E,B,] | %4
 [B,,B,]>[B,,B,] [B,,B,]>[B,,F,] [B,,B,]2 [B,,B,]>[B,,B,] | %5
 [B,,B,]>[B,,B,] [B,,B,]>[B,,F,] [B,,F,]>[B,,B,] [D,B,]>[F,A,] | %6
 B,>B, [F,B,]>[F,A,] [B,,B,]2 [D,B,]2 | [E,B,]2 [E,E]2 [F,D]2 [F,C]2 | [B,,B,]8 | %9
 [B,,B,]3 [B,,F,] [B,,F,]>[B,,B,] [D,B,]>[F,A,] | B,4 [D,B,]4 | %11
 [E,B,]3 [E,B,] [E,B,]>[E,B,] [E,B,]>[E,B,] | [B,,B,]4 [B,,F,]4 | %13
 [B,,B,]3 [B,,F,] [B,,F,]>[B,,B,] [D,B,]>[F,A,] | B,4 [D,B,]2 [D,B,]2 | %15
 [E,B,]2 [E,E]2 [F,D]2 [F,C]2 | [B,,B,]8 |] %17
V:3
 x2 | x8 | x8 | x8 | x8 | x8 | x8 | x8 | x8 | x8 | B,4 x4 | x8 | x8 | x8 | B,4 x4 | x8 | x8 |] %17

